public/primaries/MusicAlbum.svg

<svg id="Layer_1" data-name="Layer 1" xmlns="http://www.w3.org/2000/svg" width="64" height="64" viewBox="0 0 64 64">
  <defs>
    <style>
      .cls-1 {
        fill-rule: evenodd;
      }
    </style>
  </defs>
  <title>Icons 400</title>
  <path class="cls-1" d="M54,45.9848V18.0467a.9986.9986,0,0,1,1.668-.7553,20.2858,20.2858,0,0,1,0,29.4486A.9986.9986,0,0,1,54,45.9848Zm-6,8.0309H12a4,4,0,0,1-4-4v-36a4,4,0,0,1,4-4H48a4,4,0,0,1,4,4v36A4,4,0,0,1,48,54.0157ZM41,16.728a1.7,1.7,0,0,0-2.1069-1.65L24.5213,18.62A1.9993,1.9993,0,0,0,23,20.5607V38.7785a1.279,1.279,0,0,1-.9391,1.348c-.6358.1536-2.06.4909-3.9115.9385A4.0487,4.0487,0,0,0,15,44.9656a4.1347,4.1347,0,0,0,4.2857,4.0488c3.289,0,5.7144-1.8417,5.7144-4.456V28.0314a1,1,0,0,1,.7605-.9706L38.17,24.003a.67.67,0,0,1,.83.65V33.78a1.2788,1.2788,0,0,1-.9391,1.348c-.6358.1536-2.0605.491-3.9115.9386A4.0486,4.0486,0,0,0,31,39.9678a4.1347,4.1347,0,0,0,4.2858,4.0486C38.5748,44.0164,41,42.1746,41,39.56Z"/>
</svg>

<svg id="Layer_1" data-name="Layer 1" xmlns="http://www.w3.org/2000/svg" width="64" height="64" viewBox="0 0 64 64"><defs><style>.cls-1{fill-rule:evenodd}</style></defs><title>Icons 400</title><path class="cls-1" d="M54 45.985V18.047a.999.999 0 0 1 1.668-.756 20.286 20.286 0 0 1 0 29.449.999.999 0 0 1-1.668-.755zm-6 8.03H12a4 4 0 0 1-4-4v-36a4 4 0 0 1 4-4h36a4 4 0 0 1 4 4v36a4 4 0 0 1-4 4zm-7-37.287a1.7 1.7 0 0 0-2.107-1.65L24.521 18.62A2 2 0 0 0 23 20.56V38.78a1.279 1.279 0 0 1-.94 1.347c-.635.154-2.06.491-3.91.939a4.049 4.049 0 0 0-3.15 3.9 4.135 4.135 0 0 0 4.286 4.05c3.289 0 5.714-1.842 5.714-4.457V28.031a1 1 0 0 1 .76-.97l12.41-3.058a.67.67 0 0 1 .83.65v9.127a1.279 1.279 0 0 1-.94 1.348c-.635.154-2.06.491-3.91.939a4.049 4.049 0 0 0-3.15 3.9 4.135 4.135 0 0 0 4.286 4.05c3.289 0 5.714-1.842 5.714-4.457z"/></svg>
